X: 8236
T: Cór An Earraigh
R: jig
M: 6/8
K: Gmixolydian
|:DGE F3|B,CD CB,G,|DGE F3|Bcd cBG|
DGE F3|B,CD CB,G,|FA,C EDC|DB,G, G,3:|
|:A,FF FA,C|A,B,C FDC|DGG GAG|FDE FDC|
A,FF FA,C|A,B,C FDC|FA,C EDC|DB,G, G,3:|

